static/img/kroki/aa8ee6a1ad14fd2b00c932efd4e511e5.svg

<?xml version="1.0" encoding="us-ascii" standalone="no"?><svg xmlns="http://www.w3.org/2000/svg" xmlns:xlink="http://www.w3.org/1999/xlink" contentStyleType="text/css" height="535px" preserveAspectRatio="none" style="width:316px;height:535px;" version="1.1" viewBox="0 0 316 535" width="316px" zoomAndPan="magnify"><defs/><g><!--class aws_resource--><g id="elem_aws_resource"><rect codeLine="23" fill="#3D176E" height="39.7891" id="aws_resource" rx="2.5" ry="2.5" style="stroke:#000D19;stroke-width:0.5;" width="155" x="80.5" y="167.79"/><ellipse cx="95.5" cy="187.6845" fill="#ADD1B2" rx="11" ry="11" style="stroke:#181818;stroke-width:1.0;"/><path d="M98.4688,193.3252 Q97.8906,193.622 97.25,193.7627 Q96.6094,193.9189 95.9063,193.9189 Q93.4063,193.9189 92.0781,192.2783 Q90.7656,190.622 90.7656,187.497 Q90.7656,184.372 92.0781,182.7158 Q93.4063,181.0595 95.9063,181.0595 Q96.6094,181.0595 97.25,181.2158 Q97.9063,181.372 98.4688,181.6689 L98.4688,184.3877 Q97.8438,183.8095 97.25,183.5439 Q96.6563,183.2627 96.0313,183.2627 Q94.6875,183.2627 94,184.3408 Q93.3125,185.4033 93.3125,187.497 Q93.3125,189.5908 94,190.6689 Q94.6875,191.7314 96.0313,191.7314 Q96.6563,191.7314 97.25,191.4658 Q97.8438,191.1845 98.4688,190.6064 L98.4688,193.3252 Z " fill="#000000"/><text fill="#D9B8FF" font-family="Helvetica" font-size="17" lengthAdjust="spacing" textLength="113" x="114.5" y="193.5698">aws_resource</text></g><!--class aws_sagemaker_job--><g id="elem_aws_sagemaker_job"><rect codeLine="26" fill="#3D176E" height="39.7891" id="aws_sagemaker_job" rx="2.5" ry="2.5" style="stroke:#000D19;stroke-width:0.5;" width="210" x="53" y="328.58"/><ellipse cx="68" cy="348.4745" fill="#ADD1B2" rx="11" ry="11" style="stroke:#181818;stroke-width:1.0;"/><path d="M70.9688,354.1152 Q70.3906,354.412 69.75,354.5527 Q69.1094,354.7089 68.4063,354.7089 Q65.9063,354.7089 64.5781,353.0683 Q63.2656,351.412 63.2656,348.287 Q63.2656,345.162 64.5781,343.5058 Q65.9063,341.8495 68.4063,341.8495 Q69.1094,341.8495 69.75,342.0058 Q70.4063,342.162 70.9688,342.4589 L70.9688,345.1777 Q70.3438,344.5995 69.75,344.3339 Q69.1563,344.0527 68.5313,344.0527 Q67.1875,344.0527 66.5,345.1308 Q65.8125,346.1933 65.8125,348.287 Q65.8125,350.3808 66.5,351.4589 Q67.1875,352.5214 68.5313,352.5214 Q69.1563,352.5214 69.75,352.2558 Q70.3438,351.9745 70.9688,351.3964 L70.9688,354.1152 Z " fill="#000000"/><text fill="#D9B8FF" font-family="Helvetica" font-size="17" lengthAdjust="spacing" textLength="168" x="87" y="354.3598">aws_sagemaker_job</text></g><!--class aws_sagemaker_transform_job--><g id="elem_aws_sagemaker_transform_job"><rect codeLine="29" fill="#3D176E" height="39.7891" id="aws_sagemaker_transform_job" rx="2.5" ry="2.5" style="stroke:#000D19;stroke-width:0.5;" width="302" x="7" y="489.37"/><ellipse cx="22" cy="509.2645" fill="#ADD1B2" rx="11" ry="11" style="stroke:#181818;stroke-width:1.0;"/><path d="M24.9688,514.9052 Q24.3906,515.202 23.75,515.3427 Q23.1094,515.4989 22.4063,515.4989 Q19.9063,515.4989 18.5781,513.8583 Q17.2656,512.202 17.2656,509.077 Q17.2656,505.952 18.5781,504.2958 Q19.9063,502.6395 22.4063,502.6395 Q23.1094,502.6395 23.75,502.7958 Q24.4063,502.952 24.9688,503.2489 L24.9688,505.9677 Q24.3438,505.3895 23.75,505.1239 Q23.1563,504.8427 22.5313,504.8427 Q21.1875,504.8427 20.5,505.9208 Q19.8125,506.9833 19.8125,509.077 Q19.8125,511.1708 20.5,512.2489 Q21.1875,513.3114 22.5313,513.3114 Q23.1563,513.3114 23.75,513.0458 Q24.3438,512.7645 24.9688,512.1864 L24.9688,514.9052 Z " fill="#000000"/><text fill="#D9B8FF" font-family="Helvetica" font-size="17" lengthAdjust="spacing" textLength="260" x="41" y="515.1498">aws_sagemaker_transform_job</text></g><!--class resource--><g id="elem_resource"><rect codeLine="32" fill="#3D176E" height="39.7891" id="resource" rx="2.5" ry="2.5" style="stroke:#000D19;stroke-width:0.5;" width="113" x="101.5" y="7"/><ellipse cx="116.5" cy="26.8945" fill="#ADD1B2" rx="11" ry="11" style="stroke:#181818;stroke-width:1.0;"/><path d="M119.4688,32.5352 Q118.8906,32.832 118.25,32.9727 Q117.6094,33.1289 116.9063,33.1289 Q114.4063,33.1289 113.0781,31.4883 Q111.7656,29.832 111.7656,26.707 Q111.7656,23.582 113.0781,21.9258 Q114.4063,20.2695 116.9063,20.2695 Q117.6094,20.2695 118.25,20.4258 Q118.9063,20.582 119.4688,20.8789 L119.4688,23.5977 Q118.8438,23.0195 118.25,22.7539 Q117.6563,22.4727 117.0313,22.4727 Q115.6875,22.4727 115,23.5508 Q114.3125,24.6133 114.3125,26.707 Q114.3125,28.8008 115,29.8789 Q115.6875,30.9414 117.0313,30.9414 Q117.6563,30.9414 118.25,30.6758 Q118.8438,30.3945 119.4688,29.8164 L119.4688,32.5352 Z " fill="#000000"/><text fill="#D9B8FF" font-family="Helvetica" font-size="17" lengthAdjust="spacing" textLength="71" x="135.5" y="32.7798">resource</text></g><!--reverse link resource to aws_resource--><g id="link_resource_aws_resource"><path codeLine="35" d="M158,65.05 C158,95.57 158,136.9 158,167.47 " fill="none" id="resource-backto-aws_resource" style="stroke:#FFAF37;stroke-width:2.0;"/><polygon fill="none" points="158,47.05,152,65.05,164,65.05,158,47.05" style="stroke:#FFAF37;stroke-width:2.0;"/></g><!--reverse link aws_resource to aws_sagemaker_job--><g id="link_aws_resource_aws_sagemaker_job"><path codeLine="36" d="M158,225.84 C158,256.36 158,297.69 158,328.25 " fill="none" id="aws_resource-backto-aws_sagemaker_job" style="stroke:#FFAF37;stroke-width:2.0;"/><polygon fill="none" points="158,207.84,152,225.84,164,225.84,158,207.84" style="stroke:#FFAF37;stroke-width:2.0;"/></g><!--reverse link aws_sagemaker_job to aws_sagemaker_transform_job--><g id="link_aws_sagemaker_job_aws_sagemaker_transform_job"><path codeLine="37" d="M158,386.63 C158,417.15 158,458.48 158,489.04 " fill="none" id="aws_sagemaker_job-backto-aws_sagemaker_transform_job" style="stroke:#FFAF37;stroke-width:2.0;"/><polygon fill="none" points="158,368.63,152,386.63,164,386.63,158,368.63" style="stroke:#FFAF37;stroke-width:2.0;"/></g><!--SRC=[XP9DJm8n48Rl_HLDE6y24WKIBqXYz4ACU2UpsodKtRQRQLU27_zT0SMsoyAnypwPUMRIjHB8KTT-opNg7CanLofJ0u7cKoAxcTdA4kz92N8uIiDxQ_n5O0uQ-GDMR-XL0IdnibP5QT0vVXL4Tr2KAxAD4OVsdi2udmYD3wXP1SvDlIULDnu36J79nrAcPDgqDnI3qGssC4i2wHVfz_jYC4cHYwFExdqa5keT-I0ysjnwR6csHkofivOx8f1iBVgNTpe-WH3AhFXrK7i-E951YkgBDGYxsT4IAXUESHu9hT_ME6jjXPEnaAEJy6CNp8hTwJXit9BGsOOAv1-CVGLr1olKK28jNstU7Uu_bBIaKopkUtpTVcPP5WrcaSL_7Wcmjj8fCh9Xtm00]--></g></svg>

<svg xmlns="http://www.w3.org/2000/svg" width="316" height="535" viewBox="0 0 316 535"><rect width="155" height="39.789" x="80.5" y="167.79" fill="#3D176E" rx="2.5" ry="2.5" style="stroke:#000d19;stroke-width:.5"/><circle cx="95.5" cy="187.685" r="11" fill="#ADD1B2" style="stroke:#181818;stroke-width:1"/><path d="M98.469 193.325q-.578.297-1.219.438-.64.156-1.344.156-2.5 0-3.828-1.64-1.312-1.657-1.312-4.782t1.312-4.781q1.328-1.656 3.828-1.656.703 0 1.344.156.656.156 1.219.453v2.719q-.625-.578-1.219-.844-.594-.281-1.219-.281-1.344 0-2.031 1.078-.687 1.062-.687 3.156t.687 3.172q.688 1.062 2.031 1.062.625 0 1.219-.265.594-.281 1.219-.86z"/><text x="114.5" y="193.57" fill="#D9B8FF" font-family="Helvetica" font-size="17" textLength="113">aws_resource</text><rect width="210" height="39.789" x="53" y="328.58" fill="#3D176E" rx="2.5" ry="2.5" style="stroke:#000d19;stroke-width:.5"/><circle cx="68" cy="348.474" r="11" fill="#ADD1B2" style="stroke:#181818;stroke-width:1"/><path d="M70.969 354.115q-.578.297-1.219.438-.64.156-1.344.156-2.5 0-3.828-1.64-1.312-1.657-1.312-4.782t1.312-4.781q1.328-1.656 3.828-1.656.703 0 1.344.156.656.156 1.219.453v2.719q-.625-.579-1.219-.844-.594-.281-1.219-.281-1.344 0-2.031 1.078-.687 1.062-.687 3.156t.687 3.172q.688 1.062 2.031 1.062.625 0 1.219-.265.594-.281 1.219-.86z"/><text x="87" y="354.36" fill="#D9B8FF" font-family="Helvetica" font-size="17" textLength="168">aws_sagemaker_job</text><rect width="302" height="39.789" x="7" y="489.37" fill="#3D176E" rx="2.5" ry="2.5" style="stroke:#000d19;stroke-width:.5"/><circle cx="22" cy="509.264" r="11" fill="#ADD1B2" style="stroke:#181818;stroke-width:1"/><path d="M24.969 514.905q-.578.297-1.219.438-.64.156-1.344.156-2.5 0-3.828-1.64-1.312-1.657-1.312-4.782t1.312-4.781q1.328-1.656 3.828-1.656.703 0 1.344.156.656.156 1.219.453v2.719q-.625-.579-1.219-.844-.594-.281-1.219-.281-1.343 0-2.031 1.078-.687 1.062-.687 3.156t.687 3.172q.688 1.062 2.031 1.062.625 0 1.219-.265.594-.282 1.219-.86z"/><text x="41" y="515.15" fill="#D9B8FF" font-family="Helvetica" font-size="17" textLength="260">aws_sagemaker_transform_job</text><rect width="113" height="39.789" x="101.5" y="7" fill="#3D176E" rx="2.5" ry="2.5" style="stroke:#000d19;stroke-width:.5"/><circle cx="116.5" cy="26.895" r="11" fill="#ADD1B2" style="stroke:#181818;stroke-width:1"/><path d="M119.469 32.535q-.578.297-1.219.438-.64.156-1.344.156-2.5 0-3.828-1.64-1.312-1.657-1.312-4.782t1.312-4.781q1.328-1.656 3.828-1.656.703 0 1.344.156.656.156 1.219.453v2.719q-.625-.578-1.219-.844-.594-.281-1.219-.281-1.344 0-2.031 1.078-.687 1.062-.687 3.156t.687 3.172q.688 1.062 2.031 1.062.625 0 1.219-.265.594-.281 1.219-.86z"/><text x="135.5" y="32.78" fill="#D9B8FF" font-family="Helvetica" font-size="17" textLength="71">resource</text><path fill="none" d="M158 65.05v102.42m0-120.42-6 18h12zm0 178.79v102.41m0-120.41-6 18h12zm0 178.79v102.41m0-120.41-6 18h12z" style="stroke:#ffaf37;stroke-width:2"/></svg>
